source/img/contact/icon-phone.svg

<svg width="23" height="23" viewBox="0 0 23 23" fill="none" xmlns="http://www.w3.org/2000/svg">
<path d="M21.0014 16.3721V19.3773C21.0025 19.6562 20.9455 19.9324 20.8339 20.188C20.7223 20.4436 20.5587 20.6731 20.3535 20.8617C20.1483 21.0503 19.906 21.1939 19.6421 21.2833C19.3783 21.3726 19.0988 21.4058 18.8214 21.3807C15.7442 21.0458 12.7884 19.9925 10.1914 18.3054C7.77523 16.7674 5.72673 14.7154 4.1914 12.295C2.50138 9.68172 1.44964 6.70636 1.1214 3.61002C1.09641 3.33301 1.12927 3.05382 1.2179 2.79023C1.30652 2.52663 1.44897 2.28442 1.63616 2.07899C1.82336 1.87357 2.0512 1.70944 2.30519 1.59706C2.55917 1.48468 2.83374 1.42651 3.1114 1.42624H6.1114C6.5967 1.42146 7.06719 1.59361 7.43516 1.91061C7.80313 2.22762 8.04348 2.66784 8.1114 3.14922C8.23802 4.11095 8.47285 5.05524 8.8114 5.96409C8.94594 6.32263 8.97506 6.71229 8.8953 7.08691C8.81555 7.46152 8.63026 7.80538 8.3614 8.07774L7.0914 9.34994C8.51495 11.8578 10.5879 13.9343 13.0914 15.3603L14.3614 14.0881C14.6333 13.8188 14.9766 13.6332 15.3505 13.5533C15.7245 13.4734 16.1135 13.5026 16.4714 13.6373C17.3787 13.9765 18.3213 14.2117 19.2814 14.3386C19.7672 14.4072 20.2108 14.6523 20.5279 15.0272C20.8451 15.4022 21.0136 15.8808 21.0014 16.3721Z" fill="none" stroke="#3C3D40" stroke-width="2" stroke-linecap="round" stroke-linejoin="round"/>
</svg>

<svg width="23" height="23" fill="none" xmlns="http://www.w3.org/2000/svg"><path d="M21.001 16.372v3.005a2.006 2.006 0 01-1.359 1.906c-.264.09-.543.123-.82.098a19.767 19.767 0 01-8.63-3.076 19.516 19.516 0 01-6-6.01 19.846 19.846 0 01-3.07-8.685 2.007 2.007 0 011.183-2.013 2 2 0 01.806-.17h3a1.998 1.998 0 012 1.722c.127.962.362 1.906.7 2.815a2.007 2.007 0 01-.45 2.114L7.091 9.35a16.014 16.014 0 006 6.01l1.27-1.272a2 2 0 012.11-.45c.908.338 1.85.574 2.81.7a1.999 1.999 0 011.72 2.034z" stroke="#3C3D40" stroke-width="2" stroke-linecap="round" stroke-linejoin="round"/></svg>
